icons/evolvere-blue-folders-flat-vivid-dark-fallback/apps/64/matlab.svg

<?xml version="1.0" encoding="UTF-8" standalone="no"?>
<!-- Created with Inkscape (http://www.inkscape.org/) -->

<svg
   xmlns:dc="http://purl.org/dc/elements/1.1/"
   xmlns:cc="http://creativecommons.org/ns#"
   xmlns:rdf="http://www.w3.org/1999/02/22-rdf-syntax-ns#"
   xmlns:svg="http://www.w3.org/2000/svg"
   xmlns="http://www.w3.org/2000/svg"
   xmlns:xlink="http://www.w3.org/1999/xlink"
   xmlns:sodipodi="http://sodipodi.sourceforge.net/DTD/sodipodi-0.dtd"
   xmlns:inkscape="http://www.inkscape.org/namespaces/inkscape"
   width="64"
   height="64"
   id="svg13094"
   version="1.1"
   inkscape:version="0.48.4 r9939"
   sodipodi:docname="matlab.svg">
  <sodipodi:namedview
     id="base"
     pagecolor="#cbcdd6"
     bordercolor="#666666"
     borderopacity="1.0"
     inkscape:pageopacity="1"
     inkscape:pageshadow="2"
     inkscape:zoom="8.0000004"
     inkscape:cx="36.719166"
     inkscape:cy="30.583745"
     inkscape:document-units="px"
     inkscape:current-layer="svg13094"
     showgrid="false"
     inkscape:snap-bbox="true"
     inkscape:bbox-paths="true"
     inkscape:bbox-nodes="true"
     inkscape:snap-bbox-edge-midpoints="true"
     inkscape:snap-bbox-midpoints="true"
     inkscape:object-paths="true"
     inkscape:snap-intersection-paths="true"
     inkscape:object-nodes="true"
     inkscape:snap-smooth-nodes="true"
     inkscape:snap-midpoints="true"
     inkscape:snap-object-midpoints="true"
     inkscape:snap-center="true"
     showguides="true"
     inkscape:guide-bbox="true"
     inkscape:window-width="1920"
     inkscape:window-height="1025"
     inkscape:window-x="-2"
     inkscape:window-y="32"
     inkscape:window-maximized="1"
     inkscape:snap-global="true"
     fit-margin-top="0"
     fit-margin-left="0"
     fit-margin-right="0"
     fit-margin-bottom="0"
     showborder="true"
     inkscape:showpageshadow="false"
     inkscape:snap-page="true">
    <inkscape:grid
       originy="18px"
       originx="1.6362304e-08px"
       snapvisiblegridlinesonly="true"
       enabled="true"
       visible="true"
       empspacing="5"
       id="grid3075"
       type="xygrid" />
  </sodipodi:namedview>
  <defs
     id="defs13096">
    <linearGradient
       id="linearGradient5602">
      <stop
         offset="0"
         style="stop-color:#418190;stop-opacity:1;"
         id="stop5604" />
      <stop
         offset="1"
         style="stop-color:#325966;stop-opacity:1;"
         id="stop5606" />
    </linearGradient>
    <radialGradient
       r="32"
       fy="18"
       fx="32"
       cy="18"
       cx="32"
       gradientTransform="matrix(1,0,0,0.9375,0,2.125)"
       gradientUnits="userSpaceOnUse"
       id="radialGradient3018"
       xlink:href="#linearGradient5602"
       inkscape:collect="always" />
  </defs>
  <metadata
     id="metadata13099">
    <rdf:RDF>
      <cc:Work
         rdf:about="">
        <dc:format>image/svg+xml</dc:format>
        <dc:type
           rdf:resource="http://purl.org/dc/dcmitype/StillImage" />
        <dc:title />
      </cc:Work>
    </rdf:RDF>
  </metadata>
  <path
     inkscape:connector-curvature="0"
     style="color:#000000;fill:#326e7e;fill-opacity:1;fill-rule:nonzero;stroke:none;stroke-width:2.28571415000000000;marker:none;visibility:visible;display:inline;overflow:visible;enable-background:accumulate"
     d="m 0,4 0,30 0,28 2,2 30,0 30,0 2,-2 L 64,34 64,4 32,4 0,4 z"
     id="path3003" />
  <path
     id="path6502"
     d="M 2 0 L 0 1 L 0 4 L 32 4 L 64 4 L 64 1 L 62 0 L 32 0 L 2 0 z "
     style="color:#000000;fill:#64aabc;fill-opacity:1;fill-rule:nonzero;stroke:none;marker:none;visibility:visible;display:inline;overflow:visible;enable-background:accumulate;stroke-width:2.28571415000000000" />
  <path
     id="path4298"
     d="M 0,3 0,6 2,4 z"
     style="fill:#73b2c3;fill-opacity:1;fill-rule:nonzero"
     inkscape:connector-curvature="0"
     sodipodi:nodetypes="cccc" />
  <path
     inkscape:connector-curvature="0"
     style="fill:#498a9b;fill-opacity:1"
     id="path3028"
     d="M 64,6 62,4 64,3 z" />
  <g
     transform="translate(-0.62500009,0.082283)"
     inkscape:export-ydpi="90"
     inkscape:export-xdpi="90"
     inkscape:export-filename="folder.png"
     id="g3043" />
  <g
     style="fill:#ffffff"
     inkscape:label="#g3701"
     transform="matrix(1.0385892,0,0,1.0385892,1214.7222,1878.8121)"
     id="scalable" />
  <path
     style="color:#000000;fill:#87c3bb;fill-opacity:1;fill-rule:nonzero;stroke:none;stroke-width:2;marker:none;visibility:visible;display:inline;overflow:visible;enable-background:accumulate"
     d="M 20.682872,30.765983 6.3639607,36.422837 16.970562,44.289399 31.112697,36.511225 z"
     id="path3846"
     inkscape:connector-curvature="0" />
  <path
     style="color:#000000;fill:#7c433d;fill-opacity:1;fill-rule:nonzero;stroke:none;stroke-width:2;marker:none;visibility:visible;display:inline;overflow:visible;enable-background:accumulate"
     d="m 27.22361,35.980895 -6.540738,-5.214912 c 1.226814,-1.870184 2.003305,-4.134147 6.805903,-6.098796 6.797141,-2.780577 8.718663,-13.450868 12.197591,-13.258252 -3.320996,8.451046 -5.590805,17.230588 -12.462756,24.57196 z"
     id="path3844"
     inkscape:connector-curvature="0"
     sodipodi:nodetypes="ccscc" />
  <path
     style="color:#000000;fill:#ebaf39;fill-opacity:1;fill-rule:nonzero;stroke:none;stroke-width:2;marker:none;visibility:visible;display:inline;overflow:visible;enable-background:accumulate"
     d="M 16.970562,44.289399 C 22.544736,41.178287 24.696979,38.787724 30.582367,28.998216 34.988411,21.669385 35.860413,11.451763 39.951531,11.320547 44.969824,11.159593 50.549363,37.34203 56.745317,49.327535 54.249617,48.620428 50.023566,41.718104 45.34322,42.433244 40.176379,43.222718 35.621044,55.102059 27.930717,56.575379 24.60157,50.358373 23.353355,41.759414 16.970562,44.289399 z"
     id="path3842"
     inkscape:connector-curvature="0"
     sodipodi:nodetypes="csscscc" />
</svg>

<svg xmlns="http://www.w3.org/2000/svg" viewBox="0 0 64 64"><g color="#000"><path d="m0 4v30 28l2 2h30 30l2-2v-28-30h-32-32" fill="#326e7e"/><path d="m2 0l-2 1v3h32 32v-3l-2-1h-30-30" fill="#64aabc"/></g><path d="m0 3v3l2-2z" fill="#73b2c3"/><path d="m64 6l-2-2 2-1z" fill="#498a9b"/><g color="#000"><path d="m20.683 30.766l-14.319 5.657 10.607 7.867 14.14-7.778z" fill="#87c3bb"/><path d="m27.22 35.981l-6.541-5.215c1.227-1.87 2-4.134 6.806-6.099 6.797-2.781 8.719-13.451 12.198-13.258-3.321 8.451-5.591 17.231-12.463 24.572" fill="#7c433d"/><path d="m16.971 44.29c5.574-3.111 7.726-5.502 13.612-15.291 4.406-7.329 5.278-17.546 9.369-17.678 5.02-.161 10.598 26.02 16.794 38.01-2.496-.707-6.722-7.609-11.402-6.894-5.167.789-9.722 12.669-17.413 14.14-3.329-6.217-4.577-14.816-10.96-12.286" fill="#ebaf39"/></g></svg>
